archdroid-icon-theme/Archdroid-Blue/status/scalable/nm-device-wired-secure.svg

<?xml version="1.0" encoding="UTF-8" standalone="no"?>
<svg
   xmlns:dc="http://purl.org/dc/elements/1.1/"
   xmlns:cc="http://creativecommons.org/ns#"
   xmlns:rdf="http://www.w3.org/1999/02/22-rdf-syntax-ns#"
   xmlns:svg="http://www.w3.org/2000/svg"
   xmlns="http://www.w3.org/2000/svg"
   xmlns:sodipodi="http://sodipodi.sourceforge.net/DTD/sodipodi-0.dtd"
   xmlns:inkscape="http://www.inkscape.org/namespaces/inkscape"
   fill="#2196F3"
   width="48"
   height="48"
   viewBox="0 0 48 48"
   id="svg2"
   version="1.1"
   inkscape:version="0.91 r13725"
   sodipodi:docname="nm-device-wired-secure.svg">
  <metadata
     id="metadata10">
    <rdf:RDF>
      <cc:Work
         rdf:about="">
        <dc:format>image/svg+xml</dc:format>
        <dc:type
           rdf:resource="http://purl.org/dc/dcmitype/StillImage" />
      </cc:Work>
    </rdf:RDF>
  </metadata>
  <defs
     id="defs8" />
  <sodipodi:namedview
     pagecolor="#ffffff"
     bordercolor="#666666"
     borderopacity="1"
     objecttolerance="10"
     gridtolerance="10"
     guidetolerance="10"
     inkscape:pageopacity="0"
     inkscape:pageshadow="2"
     inkscape:window-width="1366"
     inkscape:window-height="713"
     id="namedview6"
     showgrid="false"
     inkscape:snap-page="true"
     inkscape:snap-bbox="true"
     inkscape:bbox-nodes="true"
     inkscape:zoom="2.756022138325016"
     inkscape:cx="-4.122183702792768"
     inkscape:cy="11.04075723411049"
     inkscape:window-x="0"
     inkscape:window-y="30"
     inkscape:window-maximized="1"
     inkscape:current-layer="svg2"
     inkscape:object-paths="true"
     inkscape:object-nodes="true"
     inkscape:snap-smooth-nodes="true"
     inkscape:snap-intersection-paths="true"
     inkscape:bbox-paths="true"
     inkscape:snap-midpoints="true"
     inkscape:snap-nodes="false"
     inkscape:snap-bbox-edge-midpoints="true" />
  <path
     id="path4192"
     style="fill:#2196F3"
     d="m 42,32 c -2.20799999999999,0 -3.9996526516163,1.6800000256137 -4,3.75 L 38,38 37.71484375,38 C 36.76535412955284,38 36,38.74275846004486 36,39.666015625 l 0,6.666015625 C 36,47.25528841495514 36.76535412955284,48 37.71484375,48 l 8.572265625,0 C 47.23659899544716,48 48,47.25528841495514 48,46.33203125 l 0,-6.666015625 C 48,38.74275846004486 47.23659899544716,38 46.287109375,38 L 46,38 46,35.75 C 46,33.67999999999997 44.208,31.99999999999999 42,32 Z m 0,2 c 1.10666666666667,0 2,0.89333333333333 2,2 l 0,2 -4,0 0,-2 c 0,-1.1066666666667 0.89333333333336,-2.00000000000003 2,-2 z m -10,0.02 L 32,20 l -4,0 0,14.02 -6,0 8,7.98 8,-7.98 -6,0 z M 18,6 10,13.98 l 6,0 0,14.02 4,0 0,-14.02 6,0 L 18,6 Z" />
</svg>

<svg xmlns="http://www.w3.org/2000/svg" fill="#2196F3" viewBox="0 0 48 48"><path d="m42 32c-2.208 0-4 1.68-4 3.75v2.25h-.285c-.949 0-1.715.743-1.715 1.666v6.666c0 .923.765 1.668 1.715 1.668h8.572c.949 0 1.713-.745 1.713-1.668v-6.666c0-.923-.763-1.666-1.713-1.666h-.287v-2.25c0-2.07-1.792-3.75-4-3.75m0 2c1.107 0 2 .893 2 2v2h-4v-2c0-1.107.893-2 2-2zm-10 .02v-14.02h-4v14.02h-6l8 7.98 8-7.98h-6m-14-28.02l-8 7.98h6v14.02h4v-14.02h6l-8-7.98"/></svg>
